Newaita/actions/24/autocorrection.svg

<svg height="24" viewBox="0 0 24 24" width="24" xmlns="http://www.w3.org/2000/svg"><g fill="#424242"><path d="m17.167969 3.324219c-.386719-.386719-1.011719-.386719-1.402344 0l-12.277344 12.277343c-.582031.585938-.582031 1.523438 0 2.105469l2.804688 2.808594c.585937.582031 1.523437.582031 2.105469 0l12.28125-12.28125c.386718-.386719.386718-1.011719 0-1.402344zm1.054687 3.859375c.195313.195312.195313.507812 0 .703125l-4.210937 4.207031-2.105469-2.105469 4.210938-4.207031c.195312-.195312.507812-.195312.703124 0zm-7.015625 3.507812 2.105469 2.105469-1.40625 1.402344-2.105469-2.105469zm-2.105469 2.105469 2.105469 2.105469-1.40625 1.402344-2.101562-2.105469zm0 0"/><path d="m5.929688 3.148438c-.230469.007812-.429688.175781-.476563.402343l-.382813 1.707031-1.707031.382813c-.539062.117187-.539062.882813 0 1.003906l1.707031.378907.382813 1.710937c.050781.234375.257813.402344.5.402344s.449219-.167969.503906-.402344l.378907-1.710937 1.710937-.378907c.234375-.054687.402344-.261719.402344-.503906s-.167969-.449219-.402344-.5l-1.710937-.382813-.378907-1.707031c-.054687-.246093-.277343-.417969-.527343-.402343zm0 0"/></g></svg>

<?xml version="1.0" encoding="UTF-8"?>
<svg xmlns="http://www.w3.org/2000/svg" xmlns:xlink="http://www.w3.org/1999/xlink" width="24px" height="24px" viewBox="0 0 24 24" version="1.1">
<g id="surface1">
<path style=" stroke:none;fill-rule:nonzero;fill:rgb(25.882354%,25.882354%,25.882354%);fill-opacity:1;" d="M 17.167969 3.324219 C 16.78125 2.9375 16.15625 2.9375 15.765625 3.324219 L 3.488281 15.601562 C 2.90625 16.1875 2.90625 17.125 3.488281 17.707031 L 6.292969 20.515625 C 6.878906 21.097656 7.816406 21.097656 8.398438 20.515625 L 20.679688 8.234375 C 21.066406 7.847656 21.066406 7.222656 20.679688 6.832031 Z M 18.222656 7.183594 C 18.417969 7.378906 18.417969 7.691406 18.222656 7.886719 L 14.011719 12.09375 L 11.90625 9.988281 L 16.117188 5.78125 C 16.3125 5.585938 16.625 5.585938 16.820312 5.78125 Z M 11.207031 10.691406 L 13.3125 12.796875 L 11.90625 14.199219 L 9.800781 12.09375 Z M 9.101562 12.796875 L 11.207031 14.902344 L 9.800781 16.304688 L 7.699219 14.199219 Z M 9.101562 12.796875 "/>
<path style=" stroke:none;fill-rule:nonzero;fill:rgb(25.882354%,25.882354%,25.882354%);fill-opacity:1;" d="M 5.929688 3.148438 C 5.699219 3.15625 5.5 3.324219 5.453125 3.550781 L 5.070312 5.257812 L 3.363281 5.640625 C 2.824219 5.757812 2.824219 6.523438 3.363281 6.644531 L 5.070312 7.023438 L 5.453125 8.734375 C 5.503906 8.96875 5.710938 9.136719 5.953125 9.136719 C 6.195312 9.136719 6.402344 8.96875 6.457031 8.734375 L 6.835938 7.023438 L 8.546875 6.644531 C 8.78125 6.589844 8.949219 6.382812 8.949219 6.140625 C 8.949219 5.898438 8.78125 5.691406 8.546875 5.640625 L 6.835938 5.257812 L 6.457031 3.550781 C 6.402344 3.304688 6.179688 3.132812 5.929688 3.148438 Z M 5.929688 3.148438 "/>
</g>
</svg>
